X: 214
T: Jieme guandeng
L: 1/8
M: 2/4
K: D
B d F A [I:setbarnb 1]| 
B3A | 
B3A | 
B2z2 | 
B2B d | 
B A F A | 
B2z2 | 
f3e | 
d3f | 
B A E F | 
f Bd2 | 
f BA2 | 
dF2E | 
F2z2 | 
d2D2 | 
D3E | 
F E F z | 
B2B d | 
B A F A | 
B2z2 | 
B d F A | 
B3d | 
D4 | 
A B A F | 
E2E2 | 
A B A F | 
E F A A | 
B AD2 | 
EB,2A, | 
B,3C | 
B,2z2 |]

@@@ Tune index: 9088
